X: 1
T:Cleveland Park
C:Trad
R:Jig
Z:e.g. Wolfstone and Karen Tweed/Iain Carr do this.
M:6/8
K:Em
L:1/8
| B,EF GFE| CEF GFE |^CEF GFE| FAF DFA|
| B,EF GFE| CEF GFE | FAF DFA|1 AGF EDC :|2 AGF E2 B,|
|: EGB eBG| ABc BGE | CEG B,EG| GFE ^DEF|
|1 EGB eBG| ABc BGE | CEG B,EG| FE^D E2 B, :|
|2 B,EF GFE| CEF GFE | FAF DFA| AGF E3||
